X: 109
T: No_37_Gift_Song.krn
%%abc-version 2.0
%%abcx-abcm2ps-target-version 5.9.1 (29 Sep 2008)
%%abc-creator hum2abc beta
%%abcx-conversion-date 2020/08/10 18:54:57
%%humdrum-veritas 190044810
%%humdrum-veritas-data 1822502901
%%linebreak <none>
%%barnumbers 0
L: 1/8
M: 2/4
K: C clef=bass
[K:clef=bass][M:2/4]A,A,C2 | 
A,3A, | 
A,2F,2 | 
A,A,C2 | 
A,3F, | 
E,4 | 
A,A,C2 | 
A,3F, | 
E,2C,2 | 
E,E,F,2 | 
E,3C, | 
A,,2C,2 | 
A,,4- | 
A,,3A, | 
A,>A, A,3/A,/ | 
CA, (3A,A,A, | 
A,2F,2 | 
A,A,C2 | 
A,3F, | 
E,4 | 
A,A,C2 | 
A,3F, | 
E,2C,2 | 
E,E,F,2 | 
E,3C, | 
A,,2C,2 | 
A,,4 |]  


